X: 1
T: Julie's Birthday
C: Ishmael the Fiddler, 2015
N: For Julie E. Smith
N: handed out by Ishmael at Concord Slow Scottish session 2015-9-30
R: jig, waltz
Z: 2016 John Chambers <jc:trillian.mit.edu>
M: 3/4
L: 1/8
K: G
|:\
"G"B3 G2B | "D"Afe dcA | "C"ce2 g2e | "G"d3 GAB |
"C"ce2 A2c | "G"Bd2 G2B | "C"cde "G"dcB |1 "D7"d2D FGA :|2 "G"G3 Bcd ||
|:\
"C"e3 cde | "G"dgd BAG | "D"FGA Adc | "B"B3 cd2 |
"C"e3 cBA | "G"GBd B2g | "D"df2 ADF |1 "G"GAB Bcd :|2 H"G"GAB "D"dcA |]
%%text For Julie E. Smith
